static/logos/retool-wordmark-color.svg

<svg width="100" height="22" viewBox="0 0 100 22" fill="none" xmlns="http://www.w3.org/2000/svg">
<g clip-path="url(#clip0_1_1226)">
<path d="M0 1.96345C0 0.879067 0.879067 0 1.96346 0H9.64366C10.728 0 11.6071 0.879067 11.6071 1.96346V3.48256C11.6071 4.02475 11.1676 4.46429 10.6254 4.46429H0.981723C0.439534 4.46429 0 4.02475 0 3.48256V1.96345Z" fill="black"/>
<path d="M0 8.12458C0 7.58239 0.439534 7.14285 0.981723 7.14285H19.4651C20.5495 7.14285 21.4286 8.02192 21.4286 9.10633V14.1969C21.4286 14.739 20.989 15.1786 20.4469 15.1786H1.96346C0.879068 15.1786 0 14.2995 0 13.2151V8.12458Z" fill="black"/>
<path d="M9.82031 18.8388C9.82031 18.2967 10.2599 17.8571 10.802 17.8571H20.4458C20.9879 17.8571 21.4275 18.2967 21.4275 18.8388V19.4651C21.4275 20.5495 20.5483 21.4286 19.464 21.4286H11.7838C10.6994 21.4286 9.82031 20.5495 9.82031 19.4651V18.8388Z" fill="black"/>
<path d="M33.5642 13.1616H35.628L39.4608 19.4269H44.1537L39.9032 12.7193C42.2618 11.9085 43.6377 10.0903 43.6377 7.46135C43.6377 3.77587 41.0579 1.78571 36.9056 1.78571H29.4609V19.4269H33.5642V13.1616ZM33.5642 9.82008V5.25006H36.6845C38.6255 5.25006 39.6083 6.08544 39.6083 7.53506C39.6083 8.96008 38.6255 9.82008 36.6845 9.82008H33.5642Z" fill="black"/>
<path d="M51.2164 19.6971C53.7963 19.6971 56.155 18.395 57.1132 15.9134L53.8209 14.8569C53.4523 15.9871 52.4941 16.5768 51.2656 16.5768C49.7668 16.5768 48.7104 15.5695 48.4401 13.8004H57.2115V12.7685C57.2115 9.1075 55.0739 6.20828 51.1428 6.20828C47.4081 6.20828 44.6562 9.1075 44.6562 12.9404C44.6562 16.9699 47.3098 19.6971 51.2164 19.6971ZM51.0936 9.255C52.5432 9.255 53.3049 10.2378 53.3295 11.3925H48.5629C48.956 9.9675 49.8896 9.255 51.0936 9.255Z" fill="black"/>
<path d="M59.4431 15.9625C59.4431 18.6161 60.8436 19.5497 63.6446 19.5497C64.5782 19.5497 65.3153 19.4761 66.0032 19.3778V16.1591C65.561 16.2082 65.3398 16.2328 64.873 16.2328C63.8903 16.2328 63.3251 16.0363 63.3251 14.9552V9.7218H65.8558V6.47856H63.3251V2.89136H59.4431V6.47856H57.7969V9.7218H59.4431V15.9625Z" fill="black"/>
<path d="M80.0666 12.965C80.0666 8.93553 77.3886 6.20828 73.5802 6.20828C69.7473 6.20828 67.0938 8.93553 67.0938 12.965C67.0938 16.9945 69.7473 19.6971 73.5802 19.6971C77.3886 19.6971 80.0666 16.9945 80.0666 12.965ZM71.0004 12.965C71.0004 10.7046 72.0078 9.42696 73.5802 9.42696C75.1527 9.42696 76.16 10.7046 76.16 12.965C76.16 15.2254 75.1527 16.503 73.5802 16.503C72.0078 16.503 71.0004 15.2254 71.0004 12.965Z" fill="black"/>
<path d="M94.2227 12.965C94.2227 8.93553 91.545 6.20828 87.7365 6.20828C83.9036 6.20828 81.25 8.93553 81.25 12.965C81.25 16.9945 83.9036 19.6971 87.7365 19.6971C91.545 19.6971 94.2227 16.9945 94.2227 12.965ZM85.1567 12.965C85.1567 10.7046 86.164 9.42696 87.7365 9.42696C89.3093 9.42696 90.3164 10.7046 90.3164 12.965C90.3164 15.2254 89.3093 16.503 87.7365 16.503C86.164 16.503 85.1567 15.2254 85.1567 12.965Z" fill="black"/>
<path d="M100.002 1.78571H96.0703V19.4269H100.002V1.78571Z" fill="black"/>
</g>
<defs>
<clipPath id="clip0_1_1226">
<rect width="100" height="21.4286" fill="white"/>
</clipPath>
</defs>
</svg>

<svg xmlns="http://www.w3.org/2000/svg" width="290.909" height="64" fill="none" viewBox="0 0 100 22"><g fill="#000" clip-path="url(#a)"><path d="M0 1.963C0 .88.88 0 1.963 0h7.68c1.085 0 1.964.88 1.964 1.963v1.52c0 .542-.44.981-.982.981H.982A.982.982 0 0 1 0 3.483v-1.52ZM0 8.125c0-.543.44-.982.982-.982h18.483c1.084 0 1.964.879 1.964 1.963v5.09c0 .543-.44.983-.982.983H1.963A1.963 1.963 0 0 1 0 13.215v-5.09ZM9.82 18.839c0-.542.44-.982.982-.982h9.644c.542 0 .981.44.981.982v.626c0 1.084-.879 1.964-1.963 1.964h-7.68a1.964 1.964 0 0 1-1.964-1.964v-.626ZM33.564 13.162h2.064l3.833 6.265h4.693l-4.25-6.708c2.358-.81 3.734-2.629 3.734-5.258 0-3.685-2.58-5.675-6.732-5.675H29.46v17.64h4.103v-6.264Zm0-3.342V5.25h3.12c1.942 0 2.924.835 2.924 2.285 0 1.425-.982 2.285-2.923 2.285h-3.12ZM51.216 19.697c2.58 0 4.939-1.302 5.897-3.784l-3.292-1.056c-.369 1.13-1.327 1.72-2.555 1.72-1.5 0-2.556-1.008-2.826-2.777h8.772v-1.032c0-3.66-2.138-6.56-6.07-6.56-3.734 0-6.486 2.9-6.486 6.732 0 4.03 2.654 6.757 6.56 6.757Zm-.122-10.442c1.45 0 2.21.983 2.236 2.137h-4.767c.393-1.425 1.327-2.137 2.53-2.137ZM59.443 15.963c0 2.653 1.4 3.587 4.202 3.587.933 0 1.67-.074 2.358-.172v-3.219c-.442.05-.663.074-1.13.074-.983 0-1.548-.197-1.548-1.278V9.722h2.53V6.479h-2.53V2.89h-3.882V6.48h-1.646v3.243h1.646v6.24ZM80.067 12.965c0-4.03-2.678-6.757-6.487-6.757-3.833 0-6.486 2.728-6.486 6.757 0 4.03 2.653 6.732 6.486 6.732 3.809 0 6.487-2.703 6.487-6.732Zm-9.067 0c0-2.26 1.008-3.538 2.58-3.538 1.573 0 2.58 1.278 2.58 3.538s-1.007 3.538-2.58 3.538c-1.572 0-2.58-1.278-2.58-3.538ZM94.223 12.965c0-4.03-2.678-6.757-6.486-6.757-3.833 0-6.487 2.728-6.487 6.757 0 4.03 2.654 6.732 6.487 6.732 3.808 0 6.486-2.703 6.486-6.732Zm-9.066 0c0-2.26 1.007-3.538 2.58-3.538 1.572 0 2.58 1.278 2.58 3.538s-1.008 3.538-2.58 3.538c-1.573 0-2.58-1.278-2.58-3.538ZM100.002 1.786H96.07v17.64h3.932V1.787Z"/></g><defs><clipPath id="a"><path fill="#fff" d="M0 0h100v21.429H0z"/></clipPath></defs></svg>
